X: 376
T: Quanlang canjun
L: 1/16
M: 2/4
K: G
e2 B d e d B A [I:setbarnb 1]| 
e2 B d e d B A | 
G2> E2 d2 e B | 
d2 B EG4 | 
B e G A B2 d2 | 
G A B B d2 B A | 
B G F E D2 B, D | 
B F E B,D4 | 
B2 d2 z d B A | 
B G F E D2 B, D | 
B F E B,D4 |]

@@@ Tune index: 9250
